outputs/icons/alert/important_notification_round.svg

<svg width="1200" height="1200" viewBox="0 0 1200 1200" fill="none" xmlns="http://www.w3.org/2000/svg"><g clip-path="url(#clip0_223_2052)"><path d="M600.005 1150C655.005 1150 699.505 1105.5 699.505 1050.5H500.505C500.505 1105.5 545.005 1150 600.005 1150ZM1014.505 914.5L950.005 850V550C950.005 382.5 832.005 242.5 675.005 208.5V150C675.005 108.5 641.505 75 600.005 75C558.505 75 525.005 108.5 525.005 150V208.5C368.002 242.5 250.002 382.5 250.002 550V850L185.502 914.5C154.002 946 176.002 1000 220.502 1000H979.005C1024.005 1000 1046.005 946 1014.505 914.5ZM650.005 800H550.005V700H650.005V800ZM650.005 550C650.005 577.5 627.505 600 600.005 600C572.505 600 550.005 577.5 550.005 550V450C550.005 422.5 572.505 400 600.005 400C627.505 400 650.005 422.5 650.005 450V550Z" fill="black"/></g><defs><clipPath id="clip0_223_2052"><path width="24" fill="white" d="M0 0H1200V1200H0V0z"/></clipPath></defs></svg>

<svg xmlns="http://www.w3.org/2000/svg" width="1200" height="1200" fill="none"><g clip-path="url(#a)"><path fill="#000" d="M600.005 1150c55 0 99.5-44.5 99.5-99.5h-199c0 55 44.5 99.5 99.5 99.5m414.5-235.5-64.5-64.5V550c0-167.5-118-307.5-275-341.5V150c0-41.5-33.5-75-75-75s-75 33.5-75 75v58.5c-157.003 34-275.003 174-275.003 341.5v300l-64.5 64.5c-31.5 31.5-9.5 85.5 35 85.5h758.503c45 0 67-54 35.5-85.5M650.005 800h-100V700h100zm0-250c0 27.5-22.5 50-50 50s-50-22.5-50-50V450c0-27.5 22.5-50 50-50s50 22.5 50 50z"/></g><defs><clipPath id="a"><path fill="#fff" d="M0 0h1200v1200H0z"/></clipPath></defs></svg>
